X:90
T:Glen Cottage, The
R:polka
H:See also "Dennis Doody's", #21
Z:id:hn-polka-90
M:2/4
L:1/8
K:Edor
B>A|:GE ED|B,E E>F|GF ED|GA B>A|GE ED|B,E E2|B>A GF|1 E2 B>A:|2 E2 E2||
|:Be e>f|eB BA|B/d/e df|e2 ef|ga/g/ fg/f/|ed BA|BE E/F/G/A/|B2 B>A:|
